X:21152 
T:OH HAG YOU HAVE KILLED ME 
B:DMI.0321
Z:Nordberg/Black
N:To hear this tune in the DMI D major version,
replace G with D in the K: field.
R:jig
%Q:1/4=160
M:6/8
L:1/8
K:G
"D modal"
D2d cAG|F3 GEA|DGE EFD|AGE EFD|
D2d cAc|dcA GEA|DED DED|DED DED:|
ABA GAG|FDF GEA|DGE EFD|AGE EFD|
AcA dAG|FDF GEA|DED DED|DED DED:|

%%%

